svgs/duotone/oil-can-drip.svg

<svg xmlns="http://www.w3.org/2000/svg" viewBox="0 0 640 512"><!--! Font Awesome Pro 6.4.0 by @fontawesome - https://fontawesome.com License - https://fontawesome.com/license (Commercial License) Copyright 2023 Fonticons, Inc. --><defs><style>.fa-secondary{opacity:.4}</style></defs><path class="fa-primary" d="M368.9 160c9.9 0 19.7 2.3 28.6 6.8L448 192l167-35.8c18.1-3.9 30.7 17.6 18.4 31.5L451.1 394.3c-12.1 13.8-29.6 21.7-48 21.7H144c-26.5 0-48-21.5-48-48V346.7l-67.5-30C11.2 309 0 291.8 0 272.8V208c0-26.5 21.5-48 48-48H96h48H368.9zM96 208H48v64.8l48 21.3V208z"/><path class="fa-secondary" d="M352 96c0 17.7-14.3 32-32 32H288v32H224V128H192c-17.7 0-32-14.3-32-32s14.3-32 32-32H320c17.7 0 32 14.3 32 32zM592 448c-26.5 0-48-21.5-48-48c0-21 20.6-62.6 34.9-88.8c5.8-10.6 20.5-10.6 26.3 0C619.4 337.4 640 379 640 400c0 32-21.5 48-48 48z"/></svg>

<svg xmlns="http://www.w3.org/2000/svg" viewBox="0 0 640 512"><!--! Font Awesome Pro 6.3.0 by @fontawesome - https://fontawesome.com License - https://fontawesome.com/license (Commercial License) Copyright 2023 Fonticons, Inc. --><defs><style>.fa-secondary{opacity:.4}</style></defs><path class="fa-primary" d="M368.9 159.1C378.8 159.1 388.6 162.3 397.5 166.8L448 191.1L615 156.2C633.1 152.3 645.7 173.8 633.5 187.7L451.1 394.3C438.1 408.1 421.5 416 403.1 416H144C117.5 416 96 394.5 96 368V346.7L28.51 316.7C11.17 308.1 0 291.8 0 272.8V207.1C0 181.5 21.49 159.1 48 159.1L368.9 159.1zM96 207.1H48V272.8L96 294.1V207.1z"/><path class="fa-secondary" d="M352 96C352 113.7 337.7 128 320 128H288V160H224V128H192C174.3 128 160 113.7 160 96C160 78.33 174.3 64 192 64H320C337.7 64 352 78.33 352 96zM544 400C544 379 564.6 337.4 578.9 311.2C584.6 300.6 599.4 300.6 605.1 311.2C619.4 337.4 640 379 640 400C640 432 618.5 448 592 448C565.5 448 544 426.5 544 400z"/></svg>
